!!!OTL: ES WAR EIN KOENIG WOL AN DEM RHEIN
!!!ARE: Europa, Mitteleuropa, Deutschland, Mittel - Franken, Ziegelanger
!!!SCT: E2114
!!!YEM: Copyright 1995, estate of Helmut Schaffrath.
**kern
*ICvox
*Ivox
*M3/4
*k[f#]
*G:
{8g
=1
8g
8b
4.dd
8b
=2
8cc
8dd
4ee
8r}
{8dd
=3
8.dd
16cc
4cc
8b
8a
=4
8b
8cc
4dd
8r}
{8g
=5
8g
8b
4dd
4b
=6
4a
4g
8r}
{8g
=7
8g
8b
4dd
4b
=8
4a
4g
8r}
==
!!!AGN: geistlich, Heiligen - Lied, Legende
!!!ONB: ESAC (Essen Associative Code) Database: ERK3
!!!AMT: simple triple
!!!AIN: vox
!!!EED: Helmut Schaffrath
!!!EEV: 1.0
*-
